!!!OTL: Des Reiters Liebchen.
!!!OTL-incipit: MEIN SCHATZ IST A REITER
!!!ARE: Europa, Mitteleuropa, Deutschland, Schwaben
!!!SCT: Z1178
!!!TXL: @@DE
!!!YEM: Copyright 1995, estate of Helmut Schaffrath.
**kern	**text
*ICvox	*
*M3/4	*
*k[f#c#]	*
*D:	*
!LO:TX:a:t=Aus Schwaben.	!
{4a	Mein
=1	=1
4f#	Schatʒ
4a	iſt
4a	a
=2	=2
4b/	Rei-
4a	-ter,
4a	a
=3	=3
4f#	Rei-
4a	-ter
4a	muß
=4	=4
2a}	ſeyn,
{4a	das
=5	=5
4a	Roß
4b/	iſt
4b/	des
=6	=6
4.dd/	Kö-
8cc#/	-nigs,
4b/	der
=7	=7
4b/	Rei-
4a	-ter
4a	iſt
=8	=8
2a}	mein!
{8bL	La-
8aJ	.
=9	=9
8aL	-la-
8gJ	.
8gL	-la-
8f#J	.
4g	-la-
=10	=10
2g	-la
8aL	la-
8gJ	.
=11	=11
8gL	-la-
8f#J	.
8f#L	-la-
8eJ	.
4f#	-la-
=12	=12
2f#}	-la
{4a	la
=13	=13
(>4a	la
4.gg/)	.
8a	la
=14	=14
(>4a	la
4.ff#/)	.
8ff#/	la
=15	=15
8ff#/L	la
8eeJ	.
8ee/L	la
8ddJ	.
8cc#/L	la
8eeJ	.
=16	=16
2dd/}	la
{4a	la
=17	=17
8g/L	la-
8a	.
8cc#	.
8eeJ	.
4gg/	.
=18	=18
8f#/L	-la-
8a	.
8dd	.
8ff#J	.
4aa/	.
=19	=19
8gg/L	-la
8ff#	.
8ee	.
8ddJ	.
8cc#/L	la
8eeJ	.
=20	=20
2d}	la!
==	==
!!!AGN: Liebes - Lied
!!!ONB: ESAC (Essen Associative Code) Database: ZUCCAL
!!!AMT: simple triple
!!!AIN: vox
!!!EED: Helmut Schaffrath
!!!EEV: 1.0
!!!GTL: V. Lieder der Minne.
!!!URL-scan: https://www.digitale-sammlungen.de/de/view/bsb11160573?page=371
!!!ENC: Anna Maria Matuszewska
!!!EEV: 2025/02/05
*-	*-
